X: 100039
M: 3/4
L: 1/8
K: Eb
|:\
vB2BBBB | B2G2e2 | B2g2e2 | b2e2g2 |\
f2ffff | f2f2f2 | g2f2d2 | ((3cdc)B2B2 |
fff2g2 | aa a2g2 | fff2c'2 | b2(=a2b2) :|
|: (c'2=e2f2) | (g2a2c'2) | b6 | g6 |\
(g2^f2g2) | (a2=B2c2) | (d2d2_B2) | g6 |
(g2a2g2) | (g2f2=e2) | (f2c2d2) | e6 |\
(B2e2d2) | (c2a2g2) | (f2c2d2) | e2z2z2 :|


